X:76
T:Wee Annie’s Hp. WI.076
M:C
L:1/8
Q:1/2=90
S:Wm Irwin, Folio MS, c1850. AGG’s Transcription
R:.Hornpipe
O:England
A:Lake District
Z:vmp.Chris Partington.2005
K:F
ag|fcAF CFAF|fcAF CFAF|gdBG DGBG|gdBG DGBG|!
fcAF CFAF|fcAF CFAF|fedc BAGF|C2E2F2:|!
|:ag|fcAc FcAc|FcAc bag^f|gdBd GdBd|Gd” sic”=Bd agfe|!
fcAc FcAc|FcAc bag^f|fedc BAGF|C2E2F2:|

